icon_installer/data/icons/scalable/actions/show-keyboard-caps-lock-wide-symbolic.svg

<?xml version="1.0" encoding="UTF-8"?>
<svg height="16px" viewBox="0 0 16 16" width="16px" xmlns="http://www.w3.org/2000/svg">
    <path d="m 8.097656 -0.0820312 c -0.273437 -0.0078126 -0.539062 0.0976562 -0.734375 0.2929692 l -7.070312 7.070312 c -0.2851565 0.285156 -0.371094 0.714844 -0.214844 1.089844 c 0.152344 0.375 0.515625 0.617187 0.921875 0.617187 h 2 v 6 c 0 0.550781 0.449219 1 1 1 h 8 c 0.550781 0 1 -0.449219 1 -1 v -6 h 2.140625 c 0.40625 0 0.769531 -0.242187 0.925781 -0.617187 s 0.070313 -0.804688 -0.21875 -1.089844 l -7.070312 -7.070312 c -0.179688 -0.179688 -0.421875 -0.2851568 -0.679688 -0.2929692 z m -0.027344 2.4140622 l 4.65625 4.65625 h -0.726562 c -0.550781 0 -1 0.449219 -1 1 v 2.011719 h -6 v -2.011719 c 0 -0.550781 -0.449219 -1 -1 -1 h -0.585938 z m -3.070312 9.667969 h 6 v 1.988281 h -6 z m 0 0" fill="#222222"/>
</svg>

<svg xmlns="http://www.w3.org/2000/svg" width="16" height="16"><path fill="#222" d="M8.098-.082a.998.998 0 0 0-.735.293L.293 7.28a.998.998 0 0 0-.215 1.09.99.99 0 0 0 .922.617h2v6c0 .551.45 1 1 1h8c.55 0 1-.449 1-1v-6h2.14a1 1 0 0 0 .708-1.707L8.778.211a1.003 1.003 0 0 0-.68-.293zM8.07 2.332l4.657 4.656H12c-.55 0-1 .45-1 1V10H5V7.988c0-.55-.45-1-1-1h-.586zM5 12h6v1.988H5zm0 0"/></svg>
